X:216
T:B216- I loathe that I did love
S:(2nd/2)
Q:1/4=120
L:1/4
M:4/2
K:Am
A2AAc2B2|A6G2|c3cd2B2|(c4c4)|\
A2c3cBA|c2c2B2A2|A3GG2A2|.(A4A4)|]

